X: 1
T: Spotted Pony
I: RJ R-48 D reel
M: C|
Z: Transcribed to abc by Mary Lou Knack
R: reel
K: D
FE | "D"D2D2 "A"E2E2 | "D"FDF2 "G"G4  |\
[1,3 "D"ABde fede | f2a2 "A"e2 :|\
[2,4 "D"ABAB dBAG | "D"F2"A"E2 "D"D2 :|\
z2 |:\
"D"f2a2 f4 |
"G"efed BcdB |\
"D"ABde fede | f2a2 "A"e4 |\
"D"f2a2 f4 | "G"efed BcdB |\
"D"ABAB dBAG |"A"F2E2 [1 "D"D4 :|[2 "D"D2 |]


